X:1
T:James Gibb editions
T:Crux fidelis - Ravanello
T:#
%%score { 1 | 2 } 3
L:1/8
Q:1/4=76
M:4/4
K:Bb
V:1 treble nm="Soprano I" snm="S"
V:2 treble 
V:3 treble nm="Alto" snm="A"
V:1
 z2"^Crux fidelis, op.66/9""^Oreste Ravanello\n (1871-1938)""^dolce"!pp! d4 d2 | f4"^," d2 e2- | %2
w: Crux fi-|de- lis, in\-|
 e2 d2 c4 |"^," d2!<(! d4 d2!<)! |[M:4/4]!>(! f4!>)! d4 |!>(! d6!>)! c2 |"^," d4!mf! d2 c2 | %7
w: * ter o-|mnes ar- bor|u- na|no- bi-|lis: nul- la|
 B2 d2 c2 B2 | (A2 Bc d_e f2- | f2)"^," _e2 !^!d2 .B2 | !^!d2 .B2 (e4 | %11
w: sil- va ta- men|pro\- * * * * *|* fert fron- de|flo- re ger\-|
"^rall."[Q:1/4=74] d2[Q:1/4=72] B2[Q:1/4=68] A3)[Q:1/4=66] A |[Q:1/4=66] !fermata!G8 |] %13
w: * * * mi-|ne.|
V:2
 z2!pp! B4 B2 | A4"^," B2 G2- | G2 B2 (B2 A2) |"^," B2!<(! B4 B2!<)! |[M:4/4]!>(! A4!>)! B4 | %5
w: Crux fi-|de- lis, in\-|* ter o\- *|mnes ar- bor|u- na|
!>(! (B2!>)! AB) G4 | ^F4 z4 |!mf! G2 =F2 =E2 G2 | F2 (GA) (Bcdc) |"^," B4 !^!A2 .G2 | %10
w: no\- * * bi-|lis:|nul- la sil- va|ta- men * pro\- * * *|fert fron- de|
 !^!^F2 .G2 (cBAG | ^FD G4) F2 | !fermata!G8 |] %13
w: flo- re ger\- * * *|* * * mi-|ne.|
V:3
 z2!pp! G4 G2 | D4"^," G2 C2- | C2 (DE) F4 |"^," B,2!<(! B,4 B,2!<)! |[M:4/4] D4"^," B,2 (G2- | %5
w: Crux fi-|de- lis, in\-|* ter * o-|mnes ar- bor|u- na no\-|
 G2 F2 E3) E | D4 z4 | z8 |!mf! F2 _E2 (D3 E/F/ | G2)"^," G2 !^!^F2 .G2 | !^!D2 .E2 C4 | D8 | %12
w: * * * bi-|lis:||ta- men pro\- * *|* fert fron- de|flo- re ger-|mi-|
 !fermata!G,8 |] %13
w: ne.|

